localPackages/DesignSystem/Sources/DesignSystem/Resources/Assets.xcassets/IconSet/ic-shield.imageset/ic-shield.svg

<svg width="24" height="24" viewBox="0 0 24 24" fill="none" xmlns="http://www.w3.org/2000/svg">
<g id="ic-shield">
<path id="Icon" fill-rule="evenodd" clip-rule="evenodd" d="M4.60542 5.58506C4.36402 8.26031 4.48981 11.0743 5.4855 13.6894C6.49123 16.3309 8.42266 18.8728 12.0005 20.8913C15.5778 18.8728 17.5089 16.3309 18.5145 13.6895C19.5101 11.0743 19.6358 8.26031 19.3946 5.585L12.0005 3.04333L4.60542 5.58506ZM3.65982 4.32393L11.7581 1.5405C11.9153 1.4865 12.0857 1.4865 12.2429 1.54051L20.3403 4.32391C20.6125 4.41748 20.8083 4.65892 20.839 4.94681C21.4656 10.8227 20.5835 17.9853 12.3445 22.4142C12.1317 22.5286 11.8693 22.5286 11.6565 22.4142C3.4165 17.9853 2.53408 10.8227 3.1611 4.94678C3.19182 4.65891 3.38761 4.41749 3.65982 4.32393Z" fill="#0F0F0F"/>
</g>
</svg>

<svg xmlns="http://www.w3.org/2000/svg" width="24" height="24" viewBox="0 0 24 24">
  <g class="ic-shield">
    <path fill-rule="evenodd" d="M4.605 5.585c-.241 2.675-.115 5.49.88 8.104 1.006 2.642 2.938 5.184 6.516 7.202 3.577-2.018 5.508-4.56 6.514-7.201.995-2.616 1.12-5.43.88-8.105L12 3.043 4.605 5.585ZM3.66 4.324l8.098-2.784a.746.746 0 0 1 .485 0l8.097 2.784a.743.743 0 0 1 .499.623c.627 5.876-.255 13.038-8.494 17.467a.733.733 0 0 1-.689 0c-8.24-4.429-9.122-11.591-8.495-17.467a.743.743 0 0 1 .499-.623Z" class="Icon"/>
  </g>
</svg>
